packages/assets/static/images/icons/lat-lon-globe.svg

<svg width="24" height="24" viewBox="0 0 24 24" xmlns="http://www.w3.org/2000/svg" fill="currentColor" aria-hidden="true"> <path d="M12.5 1.875C10.4975 1.875 8.5399 2.46882 6.87486 3.58137C5.20981 4.69392 3.91206 6.27523 3.14572 8.12533C2.37939 9.97543 2.17888 12.0112 2.56955 13.9753C2.96023 15.9393 3.92454 17.7435 5.34055 19.1595C6.75656 20.5755 8.56066 21.5398 10.5247 21.9305C12.4888 22.3211 14.5246 22.1206 16.3747 21.3543C18.2248 20.5879 19.8061 19.2902 20.9186 17.6251C22.0312 15.9601 22.625 14.0025 22.625 12C22.622 9.3156 21.5543 6.74199 19.6562 4.84383C17.758 2.94567 15.1844 1.87798 12.5 1.875ZM12.5 19.4062C11.6711 18.4361 11.0235 17.3246 10.5884 16.125H14.4153C14.1677 16.8034 13.8537 17.4556 13.4778 18.0722C13.1886 18.5427 12.8616 18.9888 12.5 19.4062ZM10.0166 13.875C9.83094 12.6319 9.83094 11.3681 10.0166 10.125H14.9853C15.1709 11.3681 15.1709 12.6319 14.9853 13.875H10.0166ZM4.625 12C4.62498 11.3681 4.70147 10.7385 4.85282 10.125H7.74219C7.58595 11.3701 7.58595 12.6299 7.74219 13.875H4.85282C4.70147 13.2615 4.62498 12.6319 4.625 12ZM12.5 4.59375C13.329 5.56391 13.9765 6.67539 14.4116 7.875H10.5866C10.8342 7.19665 11.1482 6.54441 11.5241 5.92781C11.8127 5.45741 12.1391 5.01125 12.5 4.59375ZM17.2559 10.125H20.1453C20.4491 11.3565 20.4491 12.6435 20.1453 13.875H17.2578C17.4141 12.6299 17.4141 11.3701 17.2578 10.125H17.2559ZM19.2031 7.875H16.7853C16.4475 6.74098 15.9587 5.65753 15.3322 4.65375C16.9392 5.27759 18.2989 6.40852 19.205 7.875H19.2031ZM9.66782 4.65375C9.04127 5.65753 8.55252 6.74098 8.21469 7.875H5.795C6.70113 6.40852 8.06082 5.27759 9.66782 4.65375ZM5.795 16.125H8.21469C8.55252 17.259 9.04127 18.3425 9.66782 19.3463C8.06082 18.7224 6.70113 17.5915 5.795 16.125ZM15.3322 19.3463C15.9587 18.3425 16.4475 17.259 16.7853 16.125H19.205C18.2989 17.5915 16.9392 18.7224 15.3322 19.3463Z"/> </svg>

<svg viewBox="0 0 24 24" xmlns="http://www.w3.org/2000/svg" aria-hidden="true" fill="currentColor"><path d="M12.5 1.875A10.125 10.125 0 1 0 22.625 12 10.137 10.137 0 0 0 12.5 1.875m0 17.531a10.6 10.6 0 0 1-1.912-3.281h3.827c-.247.678-.561 1.33-.937 1.947q-.435.707-.978 1.334m-2.483-5.531a12.7 12.7 0 0 1 0-3.75h4.968a12.7 12.7 0 0 1 0 3.75zM4.625 12c0-.632.076-1.261.228-1.875h2.89a15 15 0 0 0 0 3.75h-2.89A7.8 7.8 0 0 1 4.625 12M12.5 4.594a10.6 10.6 0 0 1 1.912 3.281h-3.825c.247-.678.561-1.33.937-1.947q.434-.707.976-1.334m4.756 5.531h2.89a7.8 7.8 0 0 1 0 3.75h-2.888a15 15 0 0 0 0-3.75zm1.947-2.25h-2.418a13.2 13.2 0 0 0-1.453-3.221 7.92 7.92 0 0 1 3.873 3.221zM9.668 4.654a13.2 13.2 0 0 0-1.453 3.221h-2.42a7.92 7.92 0 0 1 3.873-3.221M5.795 16.125h2.42a13.2 13.2 0 0 0 1.453 3.221 7.92 7.92 0 0 1-3.873-3.221m9.537 3.221a13.2 13.2 0 0 0 1.453-3.221h2.42a7.92 7.92 0 0 1-3.873 3.221"/></svg>
